X:754
T:Reel 754
M:4/4
K:Amin
L:1/8
A,CB,C B,G,E,^F,|G,2B,G, EDB,D|EAA^F GFED||EAAG EAAC:||2EAAG EAAB|cBAc Bcdc|BGdG eGdG|cAAc BcdB|cBAG EAAB|cBcA BcdF| (3E^FG DC B,G,G,B,|A,B,CD EGE^F| (3EFE DB, B,A,A,2|
